!!!!SEGMENT: pl-wn--sd-xvi-qu-273--050_gomolka-mikolaj--bog-wieczny-ktory-wszytkim-rozkazuje.krn
!!!cenid: 15xx:255
!!!COM: Gomółka, Mikołaj
!!!COM-rismid: pe30013343
!!!CDT: ~1535->1591/04/30
!!!CNT: Polish
!!!GTL: Melodiae na psalterz polski
!!!OTL: L. Bóg wieczny, który wszytkim rozkazuje
!!!PDT: 1580
!!!AGN: Sacred
!!!SMS-siglum: PL-Wn
!!!SMS-shelfmark: SD XVI.Qu.273
!!!SMS-shelfwork: 050 G
!!!NIFC-rismid:
!!!ONB-nifc: Melodie na psalterz polski
**kern	**text	**kern	**text	**kern	**text	**kern	**text
*part4	*part4	*part3	*part3	*part2	*part2	*part1	*part1
*staff4	*staff4	*staff3	*staff3	*staff2	*staff2	*staff1	*staff1
*clefF3	*	*clefC3	*	*clefC2	*	*clefG2	*
*k[b-]	*	*k[b-]	*	*k[b-]	*	*k[b-]	*
*C:	*	*C:	*	*C:	*	*C:	*
*M4/2	*	*M4/2	*	*M4/2	*	*M4/2	*
*met(C|)	*	*met(C|)	*	*met(C|)	*	*met(C|)	*
=-	=-	=-	=-	=-	=-	=-	=-
1G	Bóg	1B-	Bóg	1d	Bóg	2.g	Bóg
.	.	.	.	.	.	4a	.
2E-X	wiecӡ-	2G	wiecӡ-	2g	wiecӡ-	4b-/	wiecӡ-
.	.	.	.	.	.	4cc\	.
2D	-ny/	2A	-ny/	4f	-ny/	4dd\	-ny/
.	.	.	.	4g	.	4ee	.
=3-	=3-	=3-	=3-	=3-	=3-	=3-	=3-
4D	ťtó-	4F	ťtó-	2a	ťtó-	1ff	ťtó_ry
4E	.	4G	.	.	.	.	.
4F/	-ry	4A	-ry	2a	-ry	.	.
4G\	.	4B-	.	.	.	.	.
4A	wsᴣyst-	4c	wsᴣyst-	2a	wsᴣyst-	2ee	wsᴣyst-
4B-	.	4d	.	.	.	.	.
2c	-ťim	4e	-ťim	4g	-ťim	2ee	-ťim
.	.	4f	.	4a	.	.	.
=4-	=4-	=4-	=4-	=4-	=4-	=4-	=4-
2G	ros-	4g	ros-	2b-	ros-	2.dd	ros-
.	.	4f	.	.	.	.	.
2B-	-ťa-	4e	-ťa-	2g	-ťa-	.	.
.	.	4d	.	.	.	8ccL	-ťa-
.	.	.	.	.	.	8b-J	.
1A	-ӡu-	1e	-ӡu-	2.a	-ӡu-	4cc	-ӡu-
.	.	.	.	.	.	2dd	.
.	.	.	.	4g	.	4cc	.
=5-	=5-	=5-	=5-	=5-	=5-	=5-	=5-
2D	-ie	2d	-ie	2f#X	-ie	2dd	-ie
2G	Ӡiem-	2d	Ӡiem-	2g	Ӡiem-	2dd	Ӡiem-
2.B-	-sťim	2d	-sťim	2f#	-sťim	2.dd	-sťim
.	.	2f	ty-	2b-	ty-	.	.
4B-	ty-	.	.	.	.	4dd	ty-
=6-	=6-	=6-	=6-	=6-	=6-	=6-	=6-
2E	-rán-	2.g	-rán-	2.b-	-rán-	2ee-	-rán-
2E	-nom,	.	.	.	.	2ee-	-nom,
.	.	4g	-nom,	4b-	-nom,	.	.
4BB-	mó-	1f	mó-	1b-	mó-	1dd	mó-
4C	.	.	.	.	.	.	.
4D	.	.	.	.	.	.	.
4E	.	.	.	.	.	.	.
!!LO:PB:g=original
=7-	=7-	=7-	=7-	=7-	=7-	=7-	=7-
2F/	-wić	2.f	-wić	4a	-wić	4cc\	-wić
.	.	.	.	8gL	.	8b-L/	.
.	.	.	.	8aJ	.	8ccJ\	.
2D	ʃye	.	.	4b-	ʃye.	4dd	ʃye.
.	.	4e	ʃye.	4a	.	4cc	.
2G	go-	2d	go-	4g	go-	4b-/	go-
.	.	.	.	8fL	.	8aL	.
.	.	.	.	8gJ	.	8b-J	.
2C	.	4c/	.	4a	.	4a	.
.	.	4B-	.	4g	.	4g	.
=8-	=8-	=8-	=8-	=8-	=8-	=8-	=8-
1D	-tu-	4A	-tu-	4f	-tu-	2.dd	-tu-
.	.	4G	.	2g	.	.	.
.	.	2A	.	.	.	.	.
.	.	.	.	4f	.	4cc	.
2G	-ie.	2G	-ie.	2g	-ie.	2b-X	-ie.
2F/	Po-	2c/	Po-	2a	Po-	2cc	Po-
=9-	=9-	=9-	=9-	=9-	=9-	=9-	=9-
2E	-ӡo-	2c/	-ӡo-	2g	-ӡo-	2cc	-ӡo-
4F	-wie	2.f	-wie	2a	-wie	2cc	-wie
4E	.	.	.	.	.	.	.
4D	.	.	.	2.b-	ӡie-	1ff	ӡie-
4C	.	4e	.	.	.	.	.
!	!'ź'	!	!'ź'	!	!'ź'	!	!'ź'
2BB-	ӡie-	2d	ӡie-	.	.	.	.
.	.	.	.	4a	.	.	.
=10-	=10-	=10-	=10-	=10-	=10-	=10-	=10-
2C	-mię	2e	-mię	2g	-mię	2ee	-mię
2.F/	od	2f	od	4a	od	2.cc	od
.	.	.	.	4g	.	.	.
.	.	2f	wʃchod-	4a	wʃchod-	.	.
4G	wʃchod-	.	.	4b-	.	4b-/	wʃchod-
4A	-néy	2f	-néy	2cc	-néy	2a	-néy
4B-	.	.	.	.	.	.	.
=11-	=11-	=11-	=11-	=11-	=11-	=11-	=11-
2c	grá-	2e	grá-	2cc	grá-	2g	grá-
2d	.	2d	.	4a	.	2f	.
.	.	.	.	4b-	.	.	.
!!LO:PB:g=original
1c	-ni-	4e	-ni-	2cc	-ni-	4g	-ni-
.	.	2f	.	.	.	2a	.
.	.	.	.	2c	.	.	.
.	.	4e	.	.	.	4g	.
=12-	=12-	=12-	=12-	=12-	=12-	=12-	=12-
2F/	-ce/	2f	-ce/	2c	-ce/	2a	-ce/
!	!'ż'	!	!'ż'	!	!'ż'	!	!'ż'
2D	Aӡ	2A	Aӡ	2f	Aӡ	2a	Aӡ
2AA	do	2c	do	2e/	do	2a	do
2AA	ʃło-	2c#X	ʃło-	4a	ʃło-	2ee	ʃło-
.	.	.	.	4g	.	.	.
=13-	=13-	=13-	=13-	=13-	=13-	=13-	=13-
1D	-necӡ-	2d	-necӡ-	4f	-necӡ-	2.ff	-necӡ-
.	.	.	.	4e	.	.	.
.	.	2d	.	2f	.	.	.
.	.	.	.	.	.	4ee	.
2BB-	-néy	2.d	-néy	2f	-néy	4dd	-néy
.	.	.	.	.	.	4cc	.
2BB-	poӡ-	.	.	2f	poӡ-	4b-	poӡ-
.	.	4c/	poӡ-	.	.	4a	.
=14-	=14-	=14-	=14-	=14-	=14-	=14-	=14-
2E-X	-néy	2B-	-néy	2e-X	-néy	2g	-néy
!	!'ż'	!	!'ż'	!	!'ż'	!	!'ż'
2C	łóӡ-	2c/	łóӡ-	2e-	łóӡ-	1g	łóӡ-
1D	-ni-	1A	-ni-	2.d	-ni-	.	.
.	.	.	.	.	.	2f	-ni-
.	.	.	.	4c	.	.	.
=15-	=15-	=15-	=15-	=15-	=15-	=15-	=15-
!!LO:N:vis=00
!	!	!	!	!	!	!'belťa po lewej stronie'	!
0G	-ce.	0G\	-ce.	0Bn/	-ce.	0g/	-ce.
=-=-	=-	=-	=-	=-	=-	=-	=-
*-	*-	*-	*-	*-	*-	*-	*-
!!!RDF**kern: l = terminal long
!!!system-decoration: s1,s2,s3,s4
!!!RDF**kern: > = above
!!!ENC:Anna Matusӡewska
!!!END:2020-02-09
!!!URL-scan: https://polona.pl/item/melodiae-na-psalterӡ-polsťi,Nӡť3MTM4ODQ/127 Scan on Polona
!!!IIIF: https://polona.pl/iiif/item/Nzk3MTM4ODQ/manifest.json
